assets/wallet-icons/coinbase.svg

<svg width="40" height="40" viewBox="0 0 383 383" fill="none" xmlns="http://www.w3.org/2000/svg">
	<g clip-path="url(#clip0)">
	<g filter="url(#filter0_dd)">
		<path d="M0.998047 0.572266L382.78 0.572266V382.354H0.998047L0.998047 0.572266Z" fill="url(#paint0_linear)"/>
		<path fill-rule="evenodd" clip-rule="evenodd" d="M59.1074 191.572C59.1074 264.966 118.605 324.463 191.998 324.463C265.392 324.463 324.889 264.966 324.889 191.572C324.889 118.179 265.392 58.6816 191.998 58.6816C118.605 58.6816 59.1074 118.179 59.1074 191.572ZM158.037 148.752C153.144 148.752 149.178 152.718 149.178 157.611V225.533C149.178 230.426 153.144 234.393 158.037 234.393H225.959C230.852 234.393 234.818 230.426 234.818 225.533V157.611C234.818 152.718 230.852 148.752 225.959 148.752H158.037Z" fill="white"/>
	</g>
	</g>
	<defs>
		<filter id="filter0_dd" x="-23.002" y="-7.42773" width="429.782" height="429.782" filterUnits="userSpaceOnUse" color-interpolation-filters="sRGB">
			<feFlood flood-opacity="0" result="BackgroundImageFix"/>
			<feColorMatrix in="SourceAlpha" type="matrix" values="0 0 0 0 0 0 0 0 0 0 0 0 0 0 0 0 0 0 127 0"/>
			<feOffset dy="16"/>
			<feGaussianBlur stdDeviation="12"/>
			<feColorMatrix type="matrix" values="0 0 0 0 0 0 0 0 0 0 0 0 0 0 0 0 0 0 0.06 0"/>
			<feBlend mode="normal" in2="BackgroundImageFix" result="effect1_dropShadow"/>
			<feColorMatrix in="SourceAlpha" type="matrix" values="0 0 0 0 0 0 0 0 0 0 0 0 0 0 0 0 0 0 127 0"/>
			<feOffset/>
			<feGaussianBlur stdDeviation="4"/>
			<feColorMatrix type="matrix" values="0 0 0 0 0 0 0 0 0 0 0 0 0 0 0 0 0 0 0.04 0"/>
			<feBlend mode="normal" in2="effect1_dropShadow" result="effect2_dropShadow"/>
			<feBlend mode="normal" in="SourceGraphic" in2="effect2_dropShadow" result="shape"/>
		</filter>
		<linearGradient id="paint0_linear" x1="191.889" y1="0.572266" x2="191.889" y2="382.354" gradientUnits="userSpaceOnUse">
			<stop stop-color="#2E66F8"/>
			<stop offset="1" stop-color="#124ADB"/>
		</linearGradient>
		<clipPath id="clip0">
			<rect width="381.782" height="381.782" fill="white" transform="translate(0.998047 0.572266)"/>
		</clipPath>
	</defs>
</svg>

<svg viewBox="0 0 383 383" fill="none" xmlns="http://www.w3.org/2000/svg">
    <g filter="url(#filter0_dd)" clip-path="url(#clip0)">
        <path d="M.998.572H382.78v381.782H.998V.572z" fill="url(#paint0_linear)"/>
        <path fill-rule="evenodd" clip-rule="evenodd" d="M59.107 191.572c0 73.394 59.498 132.891 132.891 132.891 73.394 0 132.891-59.497 132.891-132.891 0-73.393-59.497-132.89-132.891-132.89-73.393 0-132.89 59.497-132.89 132.89zm98.93-42.82a8.859 8.859 0 00-8.859 8.859v67.922a8.86 8.86 0 008.859 8.86h67.922a8.86 8.86 0 008.859-8.86v-67.922a8.859 8.859 0 00-8.859-8.859h-67.922z" fill="#fff"/>
    </g>
    <defs>
        <linearGradient id="paint0_linear" x1="191.889" y1=".572" x2="191.889" y2="382.354" gradientUnits="userSpaceOnUse">
            <stop stop-color="#2E66F8"/>
            <stop offset="1" stop-color="#124ADB"/>
        </linearGradient>
        <clipPath id="clip0">
            <path fill="#fff" transform="translate(.998 .572)" d="M0 0h381.782v381.782H0z"/>
        </clipPath>
        <filter id="filter0_dd" x="-23.002" y="-7.428" width="429.782" height="429.782" filterUnits="userSpaceOnUse" color-interpolation-filters="sRGB">
            <feFlood flood-opacity="0" result="BackgroundImageFix"/>
            <feColorMatrix in="SourceAlpha" values="0 0 0 0 0 0 0 0 0 0 0 0 0 0 0 0 0 0 127 0"/>
            <feOffset dy="16"/>
            <feGaussianBlur stdDeviation="12"/>
            <feColorMatrix values="0 0 0 0 0 0 0 0 0 0 0 0 0 0 0 0 0 0 0.06 0"/>
            <feBlend in2="BackgroundImageFix" result="effect1_dropShadow"/>
            <feColorMatrix in="SourceAlpha" values="0 0 0 0 0 0 0 0 0 0 0 0 0 0 0 0 0 0 127 0"/>
            <feOffset/>
            <feGaussianBlur stdDeviation="4"/>
            <feColorMatrix values="0 0 0 0 0 0 0 0 0 0 0 0 0 0 0 0 0 0 0.04 0"/>
            <feBlend in2="effect1_dropShadow" result="effect2_dropShadow"/>
            <feBlend in="SourceGraphic" in2="effect2_dropShadow" result="shape"/>
        </filter>
    </defs>
</svg>
